**kern	**kern	**kern
*staff3	*staff2	*staff1
*tb32	*tb32	*tb32
*clefF4	*clefF4	*clefG2
*k[f#c#g#]	*k[f#c#g#]	*k[f#c#g#]
*M2/4	*M2/4	*M2/4
*A:	*A:	*A:
8r	8r	8b
=198	=198	=198
2r	4a	8cc#'L
.	.	(24eeL
.	.	24dd#
.	.	24cc#JJ
.	4a 4b	8dd#'L)
.	.	(24ff#L
.	.	24ee
.	.	24dd#JJ
=199	=199	=199
2r	4.g# 4.b	8ee'L)
.	.	(24eeL
.	.	24ff#
.	.	24gg#JJ
.	.	8ee'L)
.	8B	8bb'J
=200	=200	=200
2r	8c#'L	4b 4bb
.	(24eL	.
.	24d#	.
.	24c#JJ	.
.	8d#'L)	4b 4aa
.	(24f#L	.
.	24e	.
.	24d#JJ	.
=201	=201	=201
2r	8e'L)	4.b 4.gg#
.	(24eL	.
.	24f#	.
.	24g#JJ	.
.	8e')	.
.	8r	8b
=202	=202	=202
2r	4a	8cc#'L
.	.	(24eeL
.	.	24dd#
.	.	24cc#JJ
.	4a 4b	8dd#'L)
.	.	(24ff#L
.	.	24ee
.	.	24dd#JJ
=203	=203	=203
2r	4.g# 4.b	8ee'L)
.	.	(24eeL
.	.	24ff#
.	.	24gg#JJ
.	.	8ee'L)
.	8B	8bb'J
=204	=204	=204
2r	8c#'L	4b 4bb
.	(24eL	.
.	24d#	.
.	24c#JJ	.
.	8d#'L)	4b 4aa
.	(24f#L	.
.	24e	.
.	24d#JJ	.
=205	=205	=205
2r	8e'L)	4b 4gg#
.	(24g#L	.
.	24f#	.
.	24eJJ	.
.	8f#'L)	4b 4dd# 4bb
.	(24aL	.
.	24g#	.
.	24f#JJ	.
=206	=206	=206
2r	8g#'L)	4ee 4bb
.	(24bL	.
.	24g#	.
.	24eJJ	.
.	8d#'L)	4ff# 4bb
.	(24f#L	.
.	24d#	.
.	24BJJ)	.
=207	=207	=207
2r;	2r;	2r;
=||	=||	=||
*M6/8	*M6/8	*M6/8
2.r	2.r	4.ee
.	.	(4ee'
.	.	8ee')
=208	=208	=208
*-	*-	*-
